packages/icon-set-ionic/svg/sharp/arrow-up-circle-sharp.svg

<svg viewBox="0 0 512 512" xmlns="http://www.w3.org/2000/svg"><path d="m256 48c-114.87 0-208 93.13-208 208s93.13 208 208 208 208-93.13 208-208-93.13-208-208-208zm80.09 224-64.09-63.58v149.58h-32v-149.58l-64.09 63.58-22.54-22.7 102.63-101.84 102.63 101.84z"/></svg>

<svg xmlns="http://www.w3.org/2000/svg" viewBox="0 0 512 512"><path d="M256 48C141.13 48 48 141.13 48 256s93.13 208 208 208 208-93.13 208-208S370.87 48 256 48zm80.09 224L272 208.42V358h-32V208.42L175.91 272l-22.54-22.7L256 147.46 358.63 249.3z"/></svg>
